;START_OF_HEADER
;HEADER_VERSION:0.1
;FLAVOR:Griffin
;GENERATOR.NAME:Cura_SteamEngine
;GENERATOR.VERSION:4.3.0
;GENERATOR.BUILD_DATE:2019-09-24
;TARGET_MACHINE.NAME:Ultimaker 3
;EXTRUDER_TRAIN.0.INITIAL_TEMPERATURE:205
;EXTRUDER_TRAIN.0.MATERIAL.VOLUME_USED:3944
;EXTRUDER_TRAIN.0.MATERIAL.GUID:506c9f0d-e3aa-4bd4-b2d2-23e2425b1aa9
;EXTRUDER_TRAIN.0.NOZZLE.DIAMETER:0.4
;EXTRUDER_TRAIN.0.NOZZLE.NAME:AA 0.4
;BUILD_PLATE.TYPE:glass
;BUILD_PLATE.INITIAL_TEMPERATURE:60
;PRINT.TIME:4126
;PRINT.GROUPS:1
;PRINT.SIZE.MIN.X:9
;PRINT.SIZE.MIN.Y:6
;PRINT.SIZE.MIN.Z:0.27
;PRINT.SIZE.MAX.X:144.068
;PRINT.SIZE.MAX.Y:141.417
;PRINT.SIZE.MAX.Z:12.67
;END_OF_HEADER
;Generated with Cura_SteamEngine 4.3.0
T0
M82 ;absolute extrusion mode

G92 E0
M109 S205
G0 F15000 X9 Y6 Z2
G280
G1 F1500 E-6.5
;LAYER_COUNT:125
;LAYER:0
M107
M204 S625
M205 X6 Y6
G1 F600 Z2.27
G0 F4285.7 X96.446 Y82.066 Z2.27
M204 S500
M205 X5 Y5
;TYPE:SKIRT
G1 F600 Z0.27
G1 F1500 E0
G1 F1200 X96.549 Y81.963 E0.00259
G1 X97.103 Y81.465 E0.01583
G1 X97.707 Y81.03 E0.02906
G1 X98.354 Y80.663 E0.04229
G1 X99.036 Y80.366 E0.05551
G1 X99.747 Y80.145 E0.06874
G1 X100.477 Y80.001 E0.08197
G1 X101.449 Y79.933 E0.09929
G1 X102.93 Y79.933 E0.12562
G1 X103.673 Y79.973 E0.13884
G1 X104.408 Y80.092 E0.15208
G1 X105.126 Y80.29 E0.16532
G1 X105.818 Y80.563 E0.17854
G1 X106.477 Y80.909 E0.19177
G1 X107.095 Y81.324 E0.20501
G1 X107.83 Y81.963 E0.22232
G1 X107.978 Y82.111 E0.22604
G1 X108.476 Y82.665 E0.23928
G1 X108.911 Y83.269 E0.25251
G1 X109.278 Y83.916 E0.26573
G1 X109.575 Y84.598 E0.27896
G1 X109.796 Y85.309 E0.29219
G1 X109.94 Y86.039 E0.30542
G1 X110.008 Y87.01 E0.32272
G1 X110.009 Y91.636 E0.40495
G1 X110.013 Y91.655 E0.4053
G1 X110.133 Y92.39 E0.41854
G1 X110.173 Y93.133 E0.43176
G1 X110.133 Y93.876 E0.44499
G1 X110.054 Y94.365 E0.4538
G1 X110.136 Y94.397 E0.45536
G1 X110.795 Y94.743 E0.46859
G1 X111.413 Y95.158 E0.48182
G1 X112.217 Y95.865 E0.50085
G1 X112.395 Y96.048 E0.50539
G1 X112.884 Y96.609 E0.51862
G1 X113.311 Y97.219 E0.53186
G1 X113.67 Y97.871 E0.54509
G1 X113.956 Y98.558 E0.55832
G1 X114.168 Y99.271 E0.57154
G1 X114.301 Y100.004 E0.58478
G1 X114.357 Y100.88 E0.60039
G1 X114.358 Y121.207 E0.96172
G1 X127.032 Y121.207 E1.18701
G1 X127.032 Y80.616 E1.90855
G1 X127.072 Y79.873 E1.92178
G1 X127.191 Y79.138 E1.93502
G1 X127.389 Y78.42 E1.94826
G1 X127.662 Y77.728 E1.96148
G1 X128.008 Y77.069 E1.97471
G1 X128.423 Y76.451 E1.98794
G1 X129.062 Y75.716 E2.00526
G1 X129.165 Y75.613 E2.00785
G1 X129.719 Y75.115 E2.02109
G1 X130.323 Y74.68 E2.03432
G1 X130.97 Y74.313 E2.04754
G1 X131.652 Y74.016 E2.06076
G1 X132.363 Y73.795 E2.074
G1 X133.093 Y73.651 E2.08723
G1 X134.065 Y73.583 E2.10455
G1 X137.035 Y73.583 E2.15734
G1 X137.778 Y73.623 E2.17057
G1 X138.513 Y73.742 E2.1838
G1 X139.231 Y73.94 E2.19704
G1 X139.923 Y74.213 E2.21027
G1 X140.582 Y74.559 E2.2235
G1 X141.2 Y74.974 E2.23673
G1 X141.935 Y75.613 E2.25404
G1 X142.038 Y75.716 E2.25663
G1 X142.536 Y76.27 E2.26987
G1 X142.971 Y76.874 E2.28311
G1 X143.338 Y77.521 E2.29633
G1 X143.635 Y78.203 E2.30955
G1 X143.856 Y78.914 E2.32279
G1 X144 Y79.644 E2.33601
G1 X144.068 Y80.616 E2.35333
G1 X144.068 Y131.209 E3.25267
G1 X144.028 Y131.952 E3.2659
G1 X143.909 Y132.687 E3.27913
G1 X143.711 Y133.405 E3.29237
G1 X143.438 Y134.097 E3.3056
G1 X143.092 Y134.756 E3.31883
G1 X142.677 Y135.374 E3.33206
G1 X142.038 Y136.109 E3.34937
G1 X141.935 Y136.212 E3.35196
G1 X141.381 Y136.71 E3.36521
G1 X140.777 Y137.145 E3.37844
G1 X140.13 Y137.512 E3.39166
G1 X139.448 Y137.809 E3.40488
G1 X138.737 Y138.03 E3.41812
G1 X138.007 Y138.174 E3.43134
G1 X137.035 Y138.242 E3.44866
G1 X133.357 Y138.242 E3.51404
G1 X133.151 Y138.549 E3.52062
G1 X132.512 Y139.284 E3.53793
G1 X132.409 Y139.387 E3.54052
G1 X131.855 Y139.885 E3.55376
G1 X131.251 Y140.32 E3.56699
G1 X130.604 Y140.687 E3.58021
G1 X129.922 Y140.984 E3.59344
G1 X129.211 Y141.205 E3.60667
G1 X128.481 Y141.349 E3.6199
G1 X127.509 Y141.417 E3.63722
G1 X115.015 Y141.417 E3.85931
G1 X114.272 Y141.377 E3.87254
G1 X113.537 Y141.258 E3.88577
G1 X112.819 Y141.06 E3.89901
G1 X112.127 Y140.787 E3.91224
G1 X111.468 Y140.441 E3.92547
G1 X110.85 Y140.026 E3.9387
G1 X110.115 Y139.387 E3.95601
G1 X110.012 Y139.284 E3.9586
G1 X109.514 Y138.73 E3.97184
G1 X109.163 Y138.242 E3.98253
G1 X108.238 Y138.242 E3.99897
G1 X107.495 Y138.202 E4.0122
G1 X106.76 Y138.083 E4.02543
G1 X106.042 Y137.885 E4.03867
G1 X105.35 Y137.612 E4.0519
G1 X104.691 Y137.266 E4.06513
G1 X104.073 Y136.851 E4.07836
G1 X103.503 Y136.372 E4.0916
G1 X102.988 Y135.835 E4.10482
G1 X102.533 Y135.246 E4.11805
G1 X102.144 Y134.612 E4.13127
G1 X101.825 Y133.939 E4.14451
G1 X101.58 Y133.236 E4.15775
G1 X101.412 Y132.511 E4.17098
G1 X101.323 Y131.772 E4.18421
G1 X101.314 Y131.028 E4.19743
G1 X101.34 Y130.758 E4.20226
G1 X97.176 Y130.758 E4.27628
G1 X96.432 Y130.718 E4.28952
G1 X95.698 Y130.599 E4.30274
G1 X94.98 Y130.401 E4.31598
G1 X94.288 Y130.128 E4.3292
G1 X93.629 Y129.782 E4.34243
G1 X93.065 Y129.408 E4.35446
G1 X92.917 Y129.299 E4.35773
G1 X92.343 Y128.826 E4.37095
G1 X91.822 Y128.294 E4.38419
G1 X91.361 Y127.71 E4.39741
G1 X90.966 Y127.079 E4.41065
G1 X90.593 Y126.293 E4.42611
G1 X90.563 Y126.218 E4.42755
G1 X90.324 Y125.513 E4.44078
G1 X90.162 Y124.786 E4.45402
G1 X90.079 Y124.047 E4.46724
G1 X90.067 Y123.644 E4.47441
G1 X90.066 Y100.876 E4.87913
G1 X90.106 Y100.133 E4.89236
G1 X90.225 Y99.398 E4.90559
G1 X90.423 Y98.681 E4.91881
G1 X90.696 Y97.988 E4.93205
G1 X91.042 Y97.329 E4.94528
G1 X91.416 Y96.766 E4.9573
G1 X91.525 Y96.618 E4.96057
G1 X91.998 Y96.044 E4.97379
G1 X92.53 Y95.523 E4.98702
G1 X93.114 Y95.062 E5.00025
G1 X93.745 Y94.667 E5.01348
G1 X94.4 Y94.356 E5.02637
G1 X94.396 Y94.34 E5.02667
G1 X94.307 Y93.601 E5.0399
G1 X94.297 Y92.857 E5.05312
G1 X94.36 Y92.163 E5.06551
G1 X94.41 Y91.814 E5.07178
G1 X94.417 Y90.513 E5.0949
G1 X94.416 Y86.968 E5.15792
G1 X94.456 Y86.225 E5.17115
G1 X94.575 Y85.49 E5.18438
G1 X94.772 Y84.772 E5.19762
G1 X95.046 Y84.08 E5.21085
G1 X95.391 Y83.421 E5.22407
G1 X95.806 Y82.803 E5.2373
G1 X96.446 Y82.066 E5.25465
M204 S625
M205 X6 Y6
G0 F4285.7 X96.743 Y82.363
M204 S500
M205 X5 Y5
G1 F1200 X96.846 Y82.26 E5.25724
G1 X97.383 Y81.779 E5.27006
G1 X97.971 Y81.36 E5.28289
G1 X98.601 Y81.009 E5.29571
G1 X99.266 Y80.73 E5.30853
G1 X99.958 Y80.526 E5.32136
G1 X100.668 Y80.4 E5.33417
G1 X101.449 Y80.353 E5.34808
G1 X102.93 Y80.353 E5.37441
G1 X103.65 Y80.393 E5.38723
G1 X104.362 Y80.512 E5.40006
G1 X105.056 Y80.71 E5.41289
G1 X105.723 Y80.983 E5.4257
G1 X106.357 Y81.328 E5.43853
G1 X106.948 Y81.741 E5.45135
G1 X107.533 Y82.26 E5.46525
G1 X107.681 Y82.408 E5.46897
G1 X108.162 Y82.945 E5.48178
G1 X108.581 Y83.533 E5.49462
G1 X108.932 Y84.163 E5.50744
G1 X109.211 Y84.828 E5.52026
G1 X109.415 Y85.52 E5.53308
G1 X109.541 Y86.23 E5.5459
G1 X109.588 Y87.01 E5.55979
G1 X109.589 Y91.685 E5.64289
G1 X109.602 Y91.745 E5.64398
G1 X109.717 Y92.457 E5.6568
G1 X109.753 Y93.178 E5.66964
G1 X109.708 Y93.898 E5.68246
G1 X109.585 Y94.608 E5.69527
G1 X109.579 Y94.628 E5.69564
G1 X110.042 Y94.816 E5.70452
G1 X110.675 Y95.162 E5.71735
G1 X111.267 Y95.575 E5.73018
G1 X111.916 Y96.158 E5.74569
G1 X112.094 Y96.341 E5.75022
G1 X112.567 Y96.885 E5.76304
G1 X112.978 Y97.478 E5.77586
G1 X113.32 Y98.113 E5.78868
G1 X113.59 Y98.782 E5.80151
G1 X113.784 Y99.477 E5.81434
G1 X113.9 Y100.189 E5.82716
G1 X113.937 Y100.88 E5.83946
G1 X113.938 Y121.627 E6.20826
G1 X127.452 Y121.627 E6.44848
G1 X127.452 Y80.616 E7.17749
G1 X127.492 Y79.896 E7.19031
G1 X127.611 Y79.184 E7.20314
G1 X127.809 Y78.49 E7.21597
G1 X128.082 Y77.823 E7.22878
G1 X128.427 Y77.189 E7.24161
G1 X128.84 Y76.598 E7.25443
G1 X129.359 Y76.013 E7.26833
G1 X129.462 Y75.91 E7.27092
G1 X129.999 Y75.429 E7.28374
G1 X130.587 Y75.01 E7.29657
G1 X131.217 Y74.659 E7.30939
G1 X131.882 Y74.38 E7.32221
G1 X132.574 Y74.176 E7.33503
G1 X133.284 Y74.05 E7.34785
G1 X134.065 Y74.003 E7.36176
G1 X137.035 Y74.003 E7.41455
G1 X137.755 Y74.043 E7.42737
G1 X138.467 Y74.162 E7.44021
G1 X139.161 Y74.36 E7.45303
G1 X139.828 Y74.633 E7.46585
G1 X140.462 Y74.978 E7.47868
G1 X141.053 Y75.391 E7.49149
G1 X141.638 Y75.91 E7.50539
G1 X141.741 Y76.013 E7.50798
G1 X142.222 Y76.55 E7.5208
G1 X142.641 Y77.138 E7.53363
G1 X142.992 Y77.768 E7.54645
G1 X143.271 Y78.433 E7.55927
G1 X143.475 Y79.125 E7.5721
G1 X143.601 Y79.835 E7.58491
G1 X143.648 Y80.616 E7.59882
G1 X143.648 Y131.209 E8.49816
G1 X143.608 Y131.929 E8.51098
G1 X143.489 Y132.641 E8.52381
G1 X143.291 Y133.335 E8.53664
G1 X143.018 Y134.002 E8.54945
G1 X142.673 Y134.636 E8.56228
G1 X142.26 Y135.227 E8.5751
G1 X141.741 Y135.812 E8.589
G1 X141.638 Y135.915 E8.59159
G1 X141.101 Y136.396 E8.60441
G1 X140.513 Y136.815 E8.61724
G1 X139.883 Y137.166 E8.63006
G1 X139.218 Y137.445 E8.64288
G1 X138.526 Y137.649 E8.6557
G1 X137.816 Y137.775 E8.66852
G1 X137.035 Y137.822 E8.68243
G1 X133.139 Y137.822 E8.75169
G1 X132.734 Y138.402 E8.76426
G1 X132.215 Y138.987 E8.77816
G1 X132.112 Y139.09 E8.78075
G1 X131.575 Y139.571 E8.79357
G1 X130.987 Y139.99 E8.8064
G1 X130.357 Y140.341 E8.81922
G1 X129.692 Y140.62 E8.83204
G1 X129 Y140.824 E8.84486
G1 X128.29 Y140.95 E8.85768
G1 X127.509 Y140.997 E8.87159
G1 X115.015 Y140.997 E9.09368
G1 X114.295 Y140.957 E9.1065
G1 X113.583 Y140.838 E9.11933
G1 X112.889 Y140.64 E9.13216
G1 X112.222 Y140.367 E9.14497
G1 X111.588 Y140.022 E9.1578
G1 X110.997 Y139.609 E9.17062
G1 X110.412 Y139.09 E9.18452
G1 X110.309 Y138.987 E9.18711
G1 X109.828 Y138.45 E9.19993
G1 X109.409 Y137.862 E9.21276
G1 X109.387 Y137.822 E9.21357
G1 X108.238 Y137.822 E9.234
G1 X107.518 Y137.782 E9.24682
G1 X106.806 Y137.663 E9.25965
G1 X106.112 Y137.465 E9.27248
G1 X105.445 Y137.192 E9.28529
G1 X104.811 Y136.847 E9.29812
G1 X104.22 Y136.434 E9.31094
G1 X103.678 Y135.958 E9.32376
G1 X103.192 Y135.425 E9.33658
G1 X102.768 Y134.841 E9.34941
G1 X102.411 Y134.214 E9.36223
G1 X102.125 Y133.552 E9.37505
G1 X101.915 Y132.862 E9.38787
G1 X101.783 Y132.153 E9.40069
G1 X101.729 Y131.433 E9.41353
G1 X101.756 Y130.712 E9.42635
G1 X101.812 Y130.338 E9.43308
G1 X97.176 Y130.338 E9.51549
G1 X96.455 Y130.298 E9.52832
G1 X95.744 Y130.179 E9.54114
G1 X95.05 Y129.981 E9.55397
G1 X94.382 Y129.709 E9.56679
G1 X93.749 Y129.363 E9.57961
G1 X93.314 Y129.07 E9.58893
G1 X93.166 Y128.961 E9.5922
G1 X92.61 Y128.501 E9.60503
G1 X92.108 Y127.983 E9.61785
G1 X91.667 Y127.413 E9.63066
G1 X91.291 Y126.797 E9.64349
G1 X90.983 Y126.137 E9.65644
G1 X90.953 Y126.062 E9.65787
G1 X90.722 Y125.378 E9.67071
G1 X90.569 Y124.673 E9.68353
G1 X90.487 Y123.644 E9.70188
G1 X90.486 Y100.876 E10.1066
G1 X90.526 Y100.156 E10.11942
G1 X90.645 Y99.445 E10.13224
G1 X90.843 Y98.751 E10.14506
G1 X91.116 Y98.083 E10.15789
G1 X91.461 Y97.449 E10.17072
G1 X91.754 Y97.015 E10.18003
G1 X91.863 Y96.867 E10.1833
G1 X92.323 Y96.311 E10.19613
G1 X92.841 Y95.809 E10.20895
G1 X93.411 Y95.368 E10.22176
G1 X94.027 Y94.992 E10.23459
G1 X94.687 Y94.684 E10.24753
G1 X94.762 Y94.654 E10.24897
G1 X94.884 Y94.613 E10.25126
G1 X94.766 Y93.982 E10.26267
G1 X94.712 Y93.262 E10.2755
G1 X94.776 Y92.222 E10.29403
G1 X94.829 Y91.846 E10.30078
G1 X94.837 Y90.515 E10.32444
G1 X94.836 Y86.968 E10.38749
G1 X94.876 Y86.248 E10.40031
G1 X94.995 Y85.536 E10.41314
G1 X95.192 Y84.842 E10.42596
G1 X95.465 Y84.174 E10.43879
G1 X95.81 Y83.541 E10.4516
G1 X96.223 Y82.949 E10.46444
G1 X96.743 Y82.363 E10.47836
M204 S625
M205 X6 Y6
G0 F4285.7 X97.04 Y82.66
M204 S500
M205 X5 Y5
G1 F1200 X97.143 Y82.557 E10.48095
G1 X97.664 Y82.092 E10.49336
G1 X98.234 Y81.691 E10.50575
G1 X98.847 Y81.357 E10.51816
G1 X99.494 Y81.095 E10.53057
G1 X100.166 Y80.91 E10.54296
G1 X100.855 Y80.802 E10.55536
G1 X101.449 Y80.773 E10.56593
G1 X102.93 Y80.773 E10.59226
G1 X103.627 Y80.813 E10.60467
G1 X104.314 Y80.932 E10.61706
G1 X104.983 Y81.13 E10.62946
G1 X105.626 Y81.402 E10.64187
G1 X106.232 Y81.746 E10.65426
G1 X106.796 Y82.158 E10.66667
G1 X107.236 Y82.557 E10.67723
G1 X107.384 Y82.705 E10.68095
G1 X107.849 Y83.226 E10.69337
G1 X108.25 Y83.796 E10.70576
G1 X108.584 Y84.409 E10.71816
G1 X108.846 Y85.056 E10.73057
G1 X109.031 Y85.728 E10.74296
G1 X109.139 Y86.417 E10.75536
G1 X109.168 Y87.01 E10.76591
G1 X109.169 Y91.73 E10.84982
G1 X109.192 Y91.835 E10.85173
G1 X109.302 Y92.524 E10.86413
G1 X109.332 Y93.221 E10.87653
G1 X109.283 Y93.917 E10.88893
G1 X109.154 Y94.602 E10.90132
G1 X109.064 Y94.893 E10.90674
G1 X109.302 Y94.963 E10.91115
G1 X109.944 Y95.236 E10.92355
G1 X110.551 Y95.58 E10.93595
G1 X111.115 Y95.991 E10.94836
G1 X111.615 Y96.451 E10.96043
G1 X111.793 Y96.634 E10.96497
G1 X112.25 Y97.161 E10.97737
G1 X112.643 Y97.737 E10.98977
G1 X112.969 Y98.354 E11.00217
G1 X113.221 Y99.005 E11.01458
G1 X113.398 Y99.68 E11.02699
G1 X113.496 Y100.37 E11.03937
G1 X113.517 Y100.88 E11.04845
G1 X113.518 Y122.047 E11.42471
G1 X127.872 Y122.047 E11.67987
G1 X127.872 Y80.616 E12.41634
G1 X127.912 Y79.919 E12.42875
G1 X128.031 Y79.232 E12.44115
G1 X128.229 Y78.563 E12.45355
G1 X128.501 Y77.92 E12.46596
G1 X128.845 Y77.314 E12.47835
G1 X129.257 Y76.75 E12.49076
G1 X129.656 Y76.31 E12.50132
G1 X129.759 Y76.207 E12.50391
G1 X130.28 Y75.742 E12.51633
G1 X130.85 Y75.341 E12.52871
G1 X131.463 Y75.007 E12.54112
G1 X132.11 Y74.745 E12.55353
G1 X132.782 Y74.56 E12.56592
G1 X133.471 Y74.452 E12.57832
G1 X134.065 Y74.423 E12.58889
G1 X137.035 Y74.423 E12.64168
G1 X137.732 Y74.463 E12.65409
G1 X138.419 Y74.582 E12.66649
G1 X139.088 Y74.78 E12.67889
G1 X139.731 Y75.052 E12.6913
G1 X140.337 Y75.396 E12.70369
G1 X140.901 Y75.808 E12.7161
G1 X141.341 Y76.207 E12.72666
G1 X141.444 Y76.31 E12.72925
G1 X141.909 Y76.831 E12.74166
G1 X142.31 Y77.401 E12.75405
G1 X142.644 Y78.014 E12.76646
G1 X142.906 Y78.661 E12.77887
G1 X143.091 Y79.333 E12.79126
G1 X143.199 Y80.022 E12.80366
G1 X143.228 Y80.616 E12.81423
G1 X143.228 Y131.209 E13.71357
G1 X143.188 Y131.906 E13.72598
G1 X143.069 Y132.593 E13.73837
G1 X142.871 Y133.262 E13.75078
G1 X142.599 Y133.905 E13.76319
G1 X142.255 Y134.511 E13.77557
G1 X141.843 Y135.075 E13.78799
G1 X141.444 Y135.515 E13.79855
G1 X141.341 Y135.618 E13.80114
G1 X140.82 Y136.083 E13.81355
G1 X140.25 Y136.484 E13.82594
G1 X139.637 Y136.818 E13.83835
G1 X138.99 Y137.08 E13.85076
G1 X138.318 Y137.265 E13.86315
G1 X137.629 Y137.373 E13.87554
G1 X137.035 Y137.402 E13.88611
G1 X132.89 Y137.402 E13.9598
G1 X132.729 Y137.686 E13.9656
G1 X132.317 Y138.25 E13.97801
G1 X131.918 Y138.69 E13.98857
G1 X131.815 Y138.793 E13.99116
G1 X131.294 Y139.258 E14.00358
G1 X130.724 Y139.659 E14.01596
G1 X130.111 Y139.993 E14.02837
G1 X129.464 Y140.255 E14.04078
G1 X128.792 Y140.44 E14.05317
G1 X128.103 Y140.548 E14.06557
G1 X127.509 Y140.577 E14.07614
G1 X115.015 Y140.577 E14.29823
G1 X114.318 Y140.537 E14.31064
G1 X113.631 Y140.418 E14.32304
G1 X112.962 Y140.22 E14.33544
G1 X112.319 Y139.948 E14.34785
G1 X111.713 Y139.604 E14.36024
G1 X111.149 Y139.192 E14.37265
G1 X110.709 Y138.793 E14.38321
G1 X110.606 Y138.69 E14.3858
G1 X110.141 Y138.169 E14.39821
G1 X109.74 Y137.599 E14.4106
G1 X109.633 Y137.402 E14.41459
G1 X108.238 Y137.402 E14.43938
G1 X107.541 Y137.362 E14.4518
G1 X106.854 Y137.243 E14.46419
G1 X106.185 Y137.045 E14.47659
G1 X105.542 Y136.773 E14.489
G1 X104.936 Y136.429 E14.50139
G1 X104.372 Y136.017 E14.5138
G1 X103.859 Y135.544 E14.52621
G1 X103.404 Y135.016 E14.5386
G1 X103.012 Y134.439 E14.551
G1 X102.689 Y133.82 E14.56341
G1 X102.438 Y133.169 E14.57581
G1 X102.264 Y132.493 E14.58822
G1 X102.168 Y131.802 E14.60062
G1 X102.152 Y131.105 E14.61301
G1 X102.215 Y130.41 E14.62542
G1 X102.318 Y129.917 E14.63437
G1 X97.176 Y129.918 E14.72578
G1 X96.479 Y129.878 E14.73819
G1 X95.792 Y129.759 E14.75058
G1 X95.122 Y129.562 E14.76299
G1 X94.48 Y129.289 E14.7754
G1 X93.873 Y128.945 E14.7878
G1 X93.564 Y128.732 E14.79447
G1 X93.416 Y128.623 E14.79774
G1 X92.878 Y128.177 E14.81016
G1 X92.396 Y127.674 E14.82254
G1 X91.974 Y127.118 E14.83495
G1 X91.618 Y126.518 E14.84735
G1 X91.373 Y125.981 E14.85784
G1 X91.343 Y125.906 E14.85928
G1 X91.121 Y125.244 E14.87169
G1 X90.977 Y124.562 E14.88408
G1 X90.907 Y123.644 E14.90045
G1 X90.906 Y100.876 E15.30517
G1 X90.946 Y100.18 E15.31756
G1 X91.065 Y99.492 E15.32998
